X:1
T: Kelso Races
C:
R:Jig
Q:180
K:D
M:6/8
L:1/16
|:A2|d2e2d2 f2d2d2|e2d2d2 f2d2d2|d2e2d2 f2d2d2|f2d2B2 B2A2F2|
d2e2d2 f2d2d2|e2d2d2 f2d2d2|d2e2d2 g4e2|f2d2B2 B4:|
|:d2|A2F2A2 A4B2|A2F2A2 A4B2|A2F2A2 A4d2 f2d2B2|B4d2|
A2F2A2 A4B2|A2F2A2 A4d2|B2A2B2 g4e2|f2d2B2 B4:|
